X:1
T:Rouen, 11.10.11.6
T:Rouen, 11.10.11.6
T:Church melody from Rouen, France
T:Public Domain Courtesy of the Cyber Hymnal™
C:Church melody from Rouen, France
Z:Public Domain
Z:Courtesy of the Cyber Hymnal™
%%score ( 1 2 ) ( 3 4 )
L:1/8
M:4/4
K:Eb
V:1 treble 
V:2 treble 
V:3 bass 
V:4 bass 
V:1
 [EG]4 [EG]2 [DF]2 | [EG]4 [B,E]4 | [CG]3 [CA] [B,B]2 [EG]2 | [EA]4 [EG]4 | [EG]4 [DF]2 [B,G]2 | %5
 [CE]4 [B,D]4 | [CE]3 [B,A] [B,G]2 [CA]2 | G4 [DF]4 | [DB]4 [DG]2 [CE]2 | [B,F]2 [_DG]2 [CA]4 | %10
 [EG]3 F [EG]2 [DB]2 | [F=A]4 [FB]4 | [EB]4 E2 [CF]2 | G4 [DF]4 x2 | E8 |] %15
V:2
 x8 | x8 | x8 | x8 | x8 | x8 | x8 | B,2 C2 x4 | x8 | x8 | x8 | x8 | x8 | B,2 C2 x6 | E8 |] %15
V:3
 [E,B,]4 [E,B,]2 [B,,B,]2 | [E,B,]4 G,4 | [C,E,]3 [A,,E,] [G,,E,]2 [C,G,]2 | [A,,C]4 [E,B,]4 | %4
 [E,B,]4 [B,,B,]2 [E,G,]2 | [C,G,]4 [G,,G,]4 | [C,G,]3 [D,F,] E,2 [A,,E,]2 | E,4 [B,,B,]4 | %8
 [B,,F,]4 [B,,G,]2 [C,G,]2 | [_D,F,]2 [B,,B,]2 [A,,C]4 | [E,B,]3 [D,B,] [E,B,]2 [G,B,]2 | %11
 [F,C]4 [B,,D]4 | [G,,B,]4 [C,G,]2 [A,,A,]2 | B,6 z2 x2 | [E,G,]8 |] %15
V:4
 x8 | x8 | x8 | x8 | x8 | x8 | x8 | x8 | x8 | x8 | x8 | x8 | x8 | G,,2 A,,2 (B,,4 A,2) | x8 |] %15

